packages/assets/static/images/icons/bug.svg

<svg width="24" height="24" viewBox="0 0 24 24" xmlns="http://www.w3.org/2000/svg">
<g clip-path="url(#clip0_2087_4381)">
<path d="M13.1249 8.25031C13.1249 7.95363 13.2129 7.66362 13.3777 7.41695C13.5426 7.17028 13.7768 6.97802 14.0509 6.86449C14.325 6.75096 14.6266 6.72125 14.9176 6.77913C15.2085 6.83701 15.4758 6.97987 15.6856 7.18965C15.8954 7.39943 16.0382 7.6667 16.0961 7.95767C16.154 8.24864 16.1243 8.55024 16.0108 8.82433C15.8972 9.09842 15.705 9.33269 15.4583 9.49751C15.2116 9.66233 14.9216 9.75031 14.6249 9.75031C14.2271 9.75031 13.8456 9.59227 13.5643 9.31097C13.283 9.02966 13.1249 8.64813 13.1249 8.25031ZM9.37494 6.75031C9.07827 6.75031 8.78826 6.83828 8.54158 7.0031C8.29491 7.16792 8.10265 7.40219 7.98912 7.67628C7.87559 7.95037 7.84588 8.25197 7.90376 8.54294C7.96164 8.83391 8.1045 9.10119 8.31428 9.31097C8.52406 9.52074 8.79133 9.66361 9.0823 9.72148C9.37327 9.77936 9.67487 9.74966 9.94896 9.63613C10.2231 9.52259 10.4573 9.33034 10.6221 9.08366C10.787 8.83699 10.8749 8.54698 10.8749 8.25031C10.8749 7.85248 10.7169 7.47095 10.4356 7.18965C10.1543 6.90834 9.77276 6.75031 9.37494 6.75031ZM20.6249 13.5003C20.6252 14.1515 20.5516 14.8007 20.4056 15.4353L22.2009 16.2191C22.3363 16.2783 22.4587 16.3636 22.5612 16.4701C22.6636 16.5767 22.7441 16.7023 22.798 16.84C22.8519 16.9776 22.8781 17.1245 22.8753 17.2723C22.8724 17.4201 22.8404 17.5658 22.7812 17.7012C22.722 17.8367 22.6367 17.9591 22.5301 18.0616C22.4236 18.164 22.2979 18.2445 22.1603 18.2984C22.0226 18.3523 21.8757 18.3785 21.728 18.3756C21.5802 18.3727 21.4344 18.3408 21.299 18.2816L19.6115 17.5456C18.8767 18.9274 17.7798 20.0833 16.4383 20.8893C15.0968 21.6954 13.5612 22.1212 11.9962 22.1212C10.4311 22.1212 8.8956 21.6954 7.55409 20.8893C6.21257 20.0833 5.11566 18.9274 4.38088 17.5456L2.69338 18.2816C2.55795 18.3408 2.41219 18.3727 2.26441 18.3756C2.11663 18.3785 1.96973 18.3523 1.8321 18.2984C1.69446 18.2445 1.56879 18.164 1.46225 18.0616C1.35572 17.9591 1.27041 17.8367 1.21119 17.7012C1.15197 17.5658 1.12001 17.4201 1.11712 17.2723C1.11424 17.1245 1.14049 16.9776 1.19437 16.84C1.24826 16.7023 1.32873 16.5767 1.43118 16.4701C1.53364 16.3636 1.65608 16.2783 1.7915 16.2191L3.58681 15.4353C3.44327 14.8004 3.37219 14.1512 3.37494 13.5003V13.1253H1.49994C1.20157 13.1253 0.915422 13.0068 0.704444 12.7958C0.493465 12.5848 0.374939 12.2987 0.374939 12.0003C0.374939 11.7019 0.493465 11.4158 0.704444 11.2048C0.915422 10.9938 1.20157 10.8753 1.49994 10.8753H3.37494V10.5003C3.37465 9.84909 3.44825 9.19993 3.59431 8.56531L1.799 7.78156C1.5255 7.66196 1.3107 7.43861 1.20187 7.16065C1.09304 6.88269 1.09909 6.57287 1.21869 6.29937C1.33829 6.02586 1.56163 5.81107 1.8396 5.70224C2.11756 5.59341 2.42737 5.59946 2.70088 5.71906L4.38838 6.45499C5.12316 5.07316 6.22007 3.9173 7.56159 3.11127C8.9031 2.30523 10.4386 1.87939 12.0037 1.87939C13.5687 1.87939 15.1043 2.30523 16.4458 3.11127C17.7873 3.9173 18.8842 5.07316 19.619 6.45499L21.3065 5.71906C21.4419 5.65984 21.5877 5.62787 21.7355 5.62499C21.8832 5.6221 22.0301 5.64835 22.1678 5.70224C22.3054 5.75613 22.4311 5.8366 22.5376 5.93905C22.6442 6.04151 22.7295 6.16394 22.7887 6.29937C22.8479 6.43479 22.8799 6.58056 22.8828 6.72834C22.8856 6.87612 22.8594 7.02302 22.8055 7.16065C22.7516 7.29828 22.6711 7.42396 22.5687 7.53049C22.4662 7.63703 22.3438 7.72234 22.2084 7.78156L20.4131 8.56531C20.5566 9.20022 20.6277 9.84937 20.6249 10.5003V10.8753H22.4999C22.7983 10.8753 23.0845 10.9938 23.2954 11.2048C23.5064 11.4158 23.6249 11.7019 23.6249 12.0003C23.6249 12.2987 23.5064 12.5848 23.2954 12.7958C23.0845 13.0068 22.7983 13.1253 22.4999 13.1253H20.6249V13.5003ZM5.62494 10.8753H18.3749V10.5003C18.3749 8.80955 17.7033 7.18805 16.5077 5.9925C15.3122 4.79696 13.6907 4.12531 11.9999 4.12531C10.3092 4.12531 8.68768 4.79696 7.49213 5.9925C6.29659 7.18805 5.62494 8.80955 5.62494 10.5003V10.8753ZM10.8749 19.7741V13.1253H5.62494V13.5003C5.62706 14.9952 6.15371 16.442 7.1131 17.5885C8.07249 18.735 9.40379 19.5084 10.8749 19.7741ZM18.3749 13.5003V13.1253H13.1249V19.7741C14.5961 19.5084 15.9274 18.735 16.8868 17.5885C17.8462 16.442 18.3728 14.9952 18.3749 13.5003Z"/>
</g>
<defs>
<clipPath id="clip0_2087_4381">
<rect width="24" height="24"/>
</clipPath>
</defs>
</svg>

<svg viewBox="0 0 24 24" xmlns="http://www.w3.org/2000/svg" aria-hidden="true" fill="currentColor" height="24px" width="24px"><g clip-path="url(#a)"><path d="M13.125 8.25a1.5 1.5 0 1 1 3 0 1.5 1.5 0 0 1-3 0m-3.75-1.5a1.5 1.5 0 1 0 0 3 1.5 1.5 0 0 0 0-3m11.25 6.75c0 .652-.073 1.3-.22 1.935l1.796.784a1.126 1.126 0 0 1-.902 2.063l-1.687-.736a8.625 8.625 0 0 1-15.231 0l-1.688.736a1.126 1.126 0 0 1-.901-2.063l1.795-.784a8.6 8.6 0 0 1-.212-1.935v-.375H1.5a1.125 1.125 0 1 1 0-2.25h1.875V10.5c0-.65.073-1.3.22-1.935l-1.796-.783a1.126 1.126 0 0 1 .902-2.063l1.687.736a8.625 8.625 0 0 1 15.231 0l1.688-.736a1.125 1.125 0 1 1 .901 2.063l-1.795.783a8.6 8.6 0 0 1 .212 1.935v.375H22.5a1.125 1.125 0 1 1 0 2.25h-1.875zm-15-2.625h12.75V10.5a6.375 6.375 0 1 0-12.75 0zm5.25 8.9v-6.65h-5.25v.375a6.385 6.385 0 0 0 5.25 6.274m7.5-6.275v-.375h-5.25v6.65a6.385 6.385 0 0 0 5.25-6.275"/></g><defs><clipPath id="a"><path d="M0 0h24v24H0z"/></clipPath></defs></svg>
